_icons/SVG/474-porygon-z-shiny.svg

<svg xmlns="http://www.w3.org/2000/svg" width="32" height="32"><path fill="#FBCFD6" d="M18 30c0 1.657-.895 2-2 2s-2-.343-2-2 .895-4 2-4 2 2.343 2 4z"/><path fill="#FCD8DE" d="M16 32c-1.105 0-2-.343-2-2s.895-4 2-4v6z"/><ellipse fill="#FCD8DE" cx="16" cy="22" rx="6" ry="7"/><path fill="#FDE2E6" d="M16 29c-3.314 0-6-3.134-6-7s2.686-7 6-7v14z"/><path fill="#529CCF" d="M19.273 16.137C18.331 15.42 17.208 15 16 15s-2.331.42-3.273 1.137A5.861 5.861 0 0012 19c0 2.761 1.791 5 4 5s4-2.239 4-5a5.861 5.861 0 00-.727-2.863z"/><path fill="#5CA3D5" d="M16 15c-1.208 0-2.331.42-3.273 1.137A5.861 5.861 0 0012 19c0 2.761 1.791 5 4 5v-9zM15.76.181L14 6.34h4L16.24.181c-.069-.241-.411-.241-.48 0z"/><ellipse fill="#5CA3D5" cx="16" cy="9.449" rx="7" ry="6"/><path fill="#65A9DC" d="M16 3.449c-3.866 0-7 2.686-7 6s3.134 6 7 6v-12z"/><path fill="#FCD8DE" d="M19 12c0 1.105-1.343 2-3 2s-3-.895-3-2 1.343-3 3-3 3 1.895 3 3z"/><path fill="#FDE2E6" d="M16 14c-1.657 0-3-.895-3-2s1.343-3 3-3v5z"/><path fill="#FFEAA7" d="M10.5 6c-.085 0-.165.02-.248.03C9.464 7 9 8.178 9 9.449c0 .823.194 1.607.544 2.322.295.146.617.229.956.229 1.381 0 2.5-1.343 2.5-3s-1.119-3-2.5-3z"/><ellipse fill="#FFEAA7" cx="11" cy="9" rx="1" ry="1.5"/><path fill="#373F3F" d="M11 7.5c.552 0 1 .672 1 1.5s-.448 1.5-1 1.5-1-.672-1-1.5.448-1.5 1-1.5m0-.5c-.841 0-1.5.879-1.5 2s.659 2 1.5 2 1.5-.879 1.5-2-.659-2-1.5-2z"/><circle fill="#373F3F" cx="11" cy="9" r=".5"/><path fill="#FFD96C" d="M21.5 6c.085 0 .165.02.248.03C22.536 7 23 8.178 23 9.449c0 .823-.194 1.607-.544 2.322A2.144 2.144 0 0121.5 12c-1.381 0-2.5-1.343-2.5-3s1.119-3 2.5-3z"/><ellipse fill="#FFD96C" cx="21" cy="9" rx="1" ry="1.5"/><path fill="#2B3332" d="M21 7.5c.552 0 1 .672 1 1.5s-.448 1.5-1 1.5-1-.672-1-1.5.448-1.5 1-1.5m0-.5c-.841 0-1.5.879-1.5 2s.659 2 1.5 2 1.5-.879 1.5-2-.659-2-1.5-2z"/><circle fill="#2B3332" cx="21" cy="9" r=".5"/><path fill="#65A9DC" d="M15.76.181L14 6.34h2V0a.244.244 0 00-.24.181z"/><path fill="#FCD8DE" d="M31.926 15.702c.429 1.6-1.001 2.78-4.202 3.638s-6.961 1.068-7.39-.532c-.429-1.6 2.895-3.44 6.095-4.297s5.068-.409 5.497 1.191z"/><path fill="#FDE2E6" d="M.074 15.702c-.429 1.6 1.001 2.78 4.202 3.638s6.961 1.068 7.39-.532c.429-1.6-2.895-3.44-6.095-4.297S.503 14.102.074 15.702z"/></svg>

<?xml version="1.0" encoding="utf-8"?>
<!-- Generator: Adobe Illustrator 23.0.6, SVG Export Plug-In . SVG Version: 6.00 Build 0)  -->
<svg version="1.1" xmlns="http://www.w3.org/2000/svg" xmlns:xlink="http://www.w3.org/1999/xlink" x="0px" y="0px" width="32px"
	 height="32px" viewBox="0 0 32 32" enable-background="new 0 0 32 32" xml:space="preserve">
<g id="labels">
</g>
<g id="icons">
	<g>
		<path fill="#FBCFD6" d="M18,30c0,1.657-0.895,2-2,2s-2-0.343-2-2s0.895-4,2-4S18,28.343,18,30z"/>
		<path fill="#FCD8DE" d="M16,32c-1.105,0-2-0.343-2-2s0.895-4,2-4V32z"/>
		<ellipse fill="#FCD8DE" cx="16" cy="22" rx="6" ry="7"/>
		<path fill="#FDE2E6" d="M16,29c-3.314,0-6-3.134-6-7s2.686-7,6-7V29z"/>
		<path fill="#529CCF" d="M19.273,16.137C18.331,15.42,17.208,15,16,15s-2.331,0.42-3.273,1.137C12.272,16.949,12,17.933,12,19
			c0,2.761,1.791,5,4,5s4-2.239,4-5C20,17.933,19.728,16.949,19.273,16.137z"/>
		<path fill="#5CA3D5" d="M16,15c-1.208,0-2.331,0.42-3.273,1.137C12.272,16.949,12,17.933,12,19c0,2.761,1.791,5,4,5V15z"/>
		<path fill="#5CA3D5" d="M15.76,0.181L14,6.34h4l-1.76-6.159C16.171-0.06,15.829-0.06,15.76,0.181z"/>
		<ellipse fill="#5CA3D5" cx="16" cy="9.449" rx="7" ry="6"/>
		<path fill="#65A9DC" d="M16,3.449c-3.866,0-7,2.686-7,6s3.134,6,7,6V3.449z"/>
		<path fill="#FCD8DE" d="M19,12c0,1.105-1.343,2-3,2s-3-0.895-3-2s1.343-3,3-3S19,10.895,19,12z"/>
		<path fill="#FDE2E6" d="M16,14c-1.657,0-3-0.895-3-2s1.343-3,3-3V14z"/>
		<g>
			<path fill="#FFEAA7" d="M10.5,6c-0.085,0-0.165,0.02-0.248,0.03C9.464,7,9,8.178,9,9.449c0,0.823,0.194,1.607,0.544,2.322
				C9.839,11.917,10.161,12,10.5,12c1.381,0,2.5-1.343,2.5-3S11.881,6,10.5,6z"/>
		</g>
		<g>
			<ellipse fill="#FFEAA7" cx="11" cy="9" rx="1" ry="1.5"/>
			<path fill="#373F3F" d="M11,7.5c0.552,0,1,0.672,1,1.5s-0.448,1.5-1,1.5S10,9.828,10,9S10.448,7.5,11,7.5 M11,7
				c-0.841,0-1.5,0.879-1.5,2s0.659,2,1.5,2s1.5-0.879,1.5-2S11.841,7,11,7L11,7z"/>
		</g>
		<g>
			<circle fill="#373F3F" cx="11" cy="9" r="0.5"/>
		</g>
		<g>
			<path fill="#FFD96C" d="M21.5,6c0.085,0,0.165,0.02,0.248,0.03C22.536,7,23,8.178,23,9.449c0,0.823-0.194,1.607-0.544,2.322
				C22.161,11.917,21.839,12,21.5,12c-1.381,0-2.5-1.343-2.5-3S20.119,6,21.5,6z"/>
		</g>
		<g>
			<ellipse fill="#FFD96C" cx="21" cy="9" rx="1" ry="1.5"/>
			<path fill="#2B3332" d="M21,7.5c0.552,0,1,0.672,1,1.5s-0.448,1.5-1,1.5S20,9.828,20,9S20.448,7.5,21,7.5 M21,7
				c-0.841,0-1.5,0.879-1.5,2s0.659,2,1.5,2s1.5-0.879,1.5-2S21.841,7,21,7L21,7z"/>
		</g>
		<g>
			<circle fill="#2B3332" cx="21" cy="9" r="0.5"/>
		</g>
		<g>
			<path fill="#65A9DC" d="M15.76,0.181L14,6.34h2V0C15.897,0,15.794,0.06,15.76,0.181z"/>
		</g>
		<path fill="#FCD8DE" d="M31.926,15.702c0.429,1.6-1.001,2.78-4.202,3.638s-6.961,1.068-7.39-0.532
			c-0.429-1.6,2.895-3.44,6.095-4.297S31.497,14.102,31.926,15.702z"/>
		<path fill="#FDE2E6" d="M0.074,15.702c-0.429,1.6,1.001,2.78,4.202,3.638s6.961,1.068,7.39-0.532
			c0.429-1.6-2.895-3.44-6.095-4.297S0.503,14.102,0.074,15.702z"/>
	</g>
</g>
</svg>
